X:173
T: Eddig vendég...
M: 2/4
L: 1/4
K: F
d/e/f/d/ | fe | dc | 
g/f/e/d/ | c B | GG | 
d/d/d/d/ | c B | A A | 
d/d/d/d/ | cB | G G | 

